assets/src/images/icons/ic_setting.svg

<svg width="50" height="46" viewBox="0 0 50 46" fill="none" xmlns="http://www.w3.org/2000/svg">
<path fill-rule="evenodd" clip-rule="evenodd" d="M6.77966 0.847458V33.9661C9.64915 34.3797 11.8644 36.8483 11.8644 39.8305C11.8644 43.1008 9.20254 45.7627 5.9322 45.7627C2.66186 45.7627 0 43.1008 0 39.8305C0 36.8483 2.21525 34.3797 5.08475 33.9661V0.847458C5.08475 0.378814 5.46356 0 5.9322 0C6.40085 0 6.77966 0.378814 6.77966 0.847458ZM1.69492 39.8305C1.69492 42.1669 3.59576 44.0678 5.9322 44.0678C8.26864 44.0678 10.1695 42.1669 10.1695 39.8305C10.1695 37.4941 8.26864 35.5932 5.9322 35.5932C3.59576 35.5932 1.69492 37.4941 1.69492 39.8305ZM19.4916 0.847458V23.7966C22.3611 24.2102 24.5763 26.6788 24.5763 29.661C24.5763 32.6432 22.3611 35.1119 19.4916 35.5254V44.9153C19.4916 45.3839 19.1128 45.7627 18.6441 45.7627C18.1755 45.7627 17.7967 45.3839 17.7967 44.9153V35.5254C14.9272 35.1119 12.7119 32.6432 12.7119 29.661C12.7119 26.6788 14.9272 24.2102 17.7967 23.7966V0.847458C17.7967 0.378814 18.1755 0 18.6441 0C19.1128 0 19.4916 0.378814 19.4916 0.847458ZM14.4068 29.661C14.4068 31.9975 16.3077 33.8983 18.6441 33.8983C20.9806 33.8983 22.8814 31.9975 22.8814 29.661C22.8814 27.3246 20.9806 25.4237 18.6441 25.4237C16.3077 25.4237 14.4068 27.3246 14.4068 29.661ZM32.2035 13.6271V0.847458C32.2035 0.378814 31.8247 0 31.356 0C30.8874 0 30.5086 0.378814 30.5086 0.847458V13.6271C27.6391 14.0407 25.4238 16.5093 25.4238 19.4915C25.4238 22.4737 27.6391 24.9424 30.5086 25.3559V44.9153C30.5086 45.3839 30.8874 45.7627 31.356 45.7627C31.8247 45.7627 32.2035 45.3839 32.2035 44.9153V25.3559C35.073 24.9424 37.2882 22.4737 37.2882 19.4915C37.2882 16.5093 35.073 14.0407 32.2035 13.6271ZM31.356 23.7288C29.0196 23.7288 27.1187 21.828 27.1187 19.4915C27.1187 17.1551 29.0196 15.2542 31.356 15.2542C33.6925 15.2542 35.5933 17.1551 35.5933 19.4915C35.5933 21.828 33.6925 23.7288 31.356 23.7288ZM44.9154 3.45763C47.7849 3.87119 50.0001 6.33983 50.0001 9.32203C50.0001 12.3042 47.7849 14.7729 44.9154 15.1864V44.9153C44.9154 45.3839 44.5366 45.7627 44.0679 45.7627C43.5993 45.7627 43.2205 45.3839 43.2205 44.9153V15.1864C40.351 14.7729 38.1357 12.3042 38.1357 9.32203C38.1357 6.33983 40.351 3.87119 43.2205 3.45763V0.847458C43.2205 0.378814 43.5993 0 44.0679 0C44.5366 0 44.9154 0.378814 44.9154 0.847458V3.45763ZM39.8307 9.32203C39.8307 11.6585 41.7315 13.5593 44.0679 13.5593C46.4044 13.5593 48.3052 11.6585 48.3052 9.32203C48.3052 6.98559 46.4044 5.08475 44.0679 5.08475C41.7315 5.08475 39.8307 6.98559 39.8307 9.32203ZM44.9152 6.77966H43.2203C42.7516 6.77966 42.3728 7.15848 42.3728 7.62712C42.3728 8.09577 42.7516 8.47458 43.2203 8.47458H44.9152C45.3838 8.47458 45.7626 8.09577 45.7626 7.62712C45.7626 7.15848 45.3838 6.77966 44.9152 6.77966ZM30.5086 16.9491H32.2035C32.6721 16.9491 33.051 17.3279 33.051 17.7966C33.051 18.2652 32.6721 18.644 32.2035 18.644H30.5086C30.0399 18.644 29.6611 18.2652 29.6611 17.7966C29.6611 17.3279 30.0399 16.9491 30.5086 16.9491ZM32.2035 20.339H30.5086C30.0399 20.339 29.6611 20.7178 29.6611 21.1864C29.6611 21.6551 30.0399 22.0339 30.5086 22.0339H32.2035C32.6721 22.0339 33.051 21.6551 33.051 21.1864C33.051 20.7178 32.6721 20.339 32.2035 20.339ZM17.7967 27.1187H19.4916C19.9602 27.1187 20.339 27.4975 20.339 27.9661C20.339 28.4348 19.9602 28.8136 19.4916 28.8136H17.7967C17.328 28.8136 16.9492 28.4348 16.9492 27.9661C16.9492 27.4975 17.328 27.1187 17.7967 27.1187ZM19.4916 30.5084H17.7967C17.328 30.5084 16.9492 30.8872 16.9492 31.3559C16.9492 31.8245 17.328 32.2033 17.7967 32.2033H19.4916C19.9602 32.2033 20.339 31.8245 20.339 31.3559C20.339 30.8872 19.9602 30.5084 19.4916 30.5084ZM5.08476 37.2881H6.77968C7.24832 37.2881 7.62713 37.6669 7.62713 38.1355C7.62713 38.6042 7.24832 38.983 6.77968 38.983H5.08476C4.61612 38.983 4.2373 38.6042 4.2373 38.1355C4.2373 37.6669 4.61612 37.2881 5.08476 37.2881ZM6.77968 40.678H5.08476C4.61612 40.678 4.2373 41.0568 4.2373 41.5254C4.2373 41.9941 4.61612 42.3729 5.08476 42.3729H6.77968C7.24832 42.3729 7.62713 41.9941 7.62713 41.5254C7.62713 41.0568 7.24832 40.678 6.77968 40.678ZM43.2203 10.1694H44.9152C45.3838 10.1694 45.7626 10.5482 45.7626 11.0169C45.7626 11.4855 45.3838 11.8643 44.9152 11.8643H43.2203C42.7516 11.8643 42.3728 11.4855 42.3728 11.0169C42.3728 10.5482 42.7516 10.1694 43.2203 10.1694Z" fill="#0090A1"/>
</svg>

<svg width="50" height="46" viewBox="0 0 50 46" fill="none" xmlns="http://www.w3.org/2000/svg"><path fill-rule="evenodd" clip-rule="evenodd" d="M6.78.847v33.12c2.87.413 5.084 2.881 5.084 5.864a5.94 5.94 0 01-5.932 5.932A5.94 5.94 0 010 39.83c0-2.983 2.215-5.451 5.085-5.865V.847a.847.847 0 111.695 0zM1.695 39.83c0 2.337 1.9 4.238 4.237 4.238s4.237-1.901 4.237-4.237c0-2.337-1.9-4.238-4.237-4.238a4.242 4.242 0 00-4.237 4.237zM19.492.848v22.95c2.87.413 5.084 2.882 5.084 5.864 0 2.982-2.215 5.45-5.084 5.864v9.39a.847.847 0 11-1.695 0v-9.39c-2.87-.413-5.085-2.882-5.085-5.864 0-2.982 2.215-5.45 5.085-5.864V.847a.847.847 0 111.695 0zm-5.085 28.814c0 2.336 1.9 4.237 4.237 4.237s4.237-1.9 4.237-4.237c0-2.336-1.9-4.237-4.237-4.237a4.242 4.242 0 00-4.237 4.237zm17.796-16.034V.847a.847.847 0 10-1.694 0v12.78c-2.87.414-5.085 2.882-5.085 5.864 0 2.983 2.215 5.451 5.085 5.865v19.56a.847.847 0 101.694 0v-19.56c2.87-.414 5.085-2.882 5.085-5.865 0-2.982-2.215-5.45-5.084-5.864zm-.847 10.102a4.242 4.242 0 01-4.237-4.238c0-2.336 1.9-4.237 4.237-4.237s4.237 1.901 4.237 4.237c0 2.337-1.9 4.238-4.237 4.238zm13.56-20.271C47.784 3.87 50 6.34 50 9.322c0 2.982-2.215 5.45-5.085 5.864v29.73a.847.847 0 11-1.694 0v-29.73c-2.87-.413-5.085-2.882-5.085-5.864 0-2.982 2.215-5.45 5.084-5.864V.848a.847.847 0 111.695 0v2.61zM39.83 9.322a4.24 4.24 0 004.237 4.237c2.336 0 4.237-1.9 4.237-4.237 0-2.336-1.9-4.237-4.237-4.237a4.242 4.242 0 00-4.237 4.237zm5.084-2.542H43.22a.847.847 0 100 1.695h1.695a.847.847 0 100-1.695zM30.51 16.95h1.694a.847.847 0 110 1.694H30.51a.847.847 0 110-1.695zm1.694 3.389H30.51a.847.847 0 100 1.695h1.694a.847.847 0 100-1.695zm-14.406 6.78h1.695a.847.847 0 110 1.695h-1.695a.847.847 0 110-1.695zm1.695 3.39h-1.695a.847.847 0 100 1.694h1.695a.847.847 0 100-1.695zm-14.407 6.78H6.78a.847.847 0 110 1.694H5.085a.847.847 0 110-1.695zm1.695 3.389H5.085a.847.847 0 100 1.695H6.78a.847.847 0 100-1.695zm36.44-30.509h1.695a.847.847 0 110 1.695H43.22a.847.847 0 110-1.695z" fill="#0090A1"/></svg>
